packages/foundations/assets/icons/functional/images/audio & video/subtitles.svg

<svg xmlns="http://www.w3.org/2000/svg" width="32" height="32" fill="none"><path fill="#1A1C1F" fill-rule="evenodd" d="M4.133 6.126a2.8 2.8 0 0 0-1.254.753 2.96 2.96 0 0 0-.785 1.34C2.006 8.537 2 9.059 2 16.08c0 7.233.004 7.531.101 7.813.164.479.33.767.629 1.096a3.14 3.14 0 0 0 1.346.865l.431.146h23.04l.413-.141a2.77 2.77 0 0 0 1.227-.783c.328-.345.583-.805.721-1.304.085-.307.092-.898.092-7.825V8.453l-.141-.413a3.8 3.8 0 0 0-.311-.678c-.23-.359-.744-.825-1.117-1.013-.684-.345.204-.323-12.465-.319-10.733.004-11.534.01-11.833.096M27.44 8.1c.117.054.258.148.312.209.25.281.243.077.246 7.706.002 6.352-.008 7.211-.08 7.385-.111.264-.224.383-.478.5-.205.094-.661.098-11.467.099-10.608.001-11.264-.005-11.438-.092a1.2 1.2 0 0 1-.347-.325l-.161-.231-.016-7.236c-.011-4.927.002-7.297.04-7.428a.9.9 0 0 1 .505-.586c.209-.095.629-.099 11.444-.099 10.781 0 11.235.004 11.44.098m-19.7 6.939c-.523.126-.844.693-.699 1.233.08.297.386.605.678.684.157.042 1.441.056 4.398.045l4.176-.014.199-.124c.537-.334.665-1.037.274-1.502-.31-.369-.023-.347-4.659-.356-2.303-.005-4.268.011-4.367.034m12.012-.003c-.562.139-.865.662-.712 1.231.08.296.383.608.668.687.302.084 4.372.081 4.617-.003.268-.092.413-.208.526-.42.216-.409.184-.85-.085-1.17-.298-.354-.246-.347-2.659-.357-1.203-.005-2.262.009-2.355.032m-8.872 4.002c-2.384.021-3.256.046-3.339.093-.182.104-.431.417-.501.628-.158.479.171 1.057.682 1.199.131.036 2.11.054 5.825.052 6.366-.003 5.955.024 6.264-.415.142-.203.162-.276.162-.595 0-.327-.016-.384-.165-.568a1.6 1.6 0 0 0-.347-.312c-.174-.103-.279-.107-2.768-.109-1.422-.001-4.038.011-5.813.027m11.813.026c-.269.099-.588.435-.66.697-.135.489.2 1.068.695 1.201.135.037.5.054.897.043.588-.016.692-.033.867-.142.537-.334.665-1.037.274-1.502-.246-.292-.403-.34-1.166-.359-.513-.012-.749.004-.907.062"/></svg>

<svg width="32" height="32" viewBox="0 0 32 32" fill="none" xmlns="http://www.w3.org/2000/svg"><path d="M4.133 6.126 C 3.646 6.266,3.262 6.497,2.879 6.879 C 2.494 7.263,2.237 7.702,2.094 8.219 C 2.006 8.537,2.000 9.059,2.000 16.080 C 2.000 23.313,2.004 23.611,2.101 23.893 C 2.265 24.372,2.431 24.660,2.730 24.989 C 3.094 25.387,3.534 25.670,4.076 25.854 L 4.507 26.000 16.027 26.000 L 27.547 26.000 27.960 25.859 C 28.478 25.682,28.811 25.470,29.187 25.076 C 29.515 24.731,29.770 24.271,29.908 23.772 C 29.993 23.465,30.000 22.874,30.000 15.947 L 30.000 8.453 29.859 8.040 C 29.782 7.813,29.642 7.508,29.548 7.362 C 29.318 7.003,28.804 6.537,28.431 6.349 C 27.747 6.004,28.635 6.026,15.966 6.030 C 5.233 6.034,4.432 6.040,4.133 6.126 M27.440 8.100 C 27.557 8.154,27.698 8.248,27.752 8.309 C 28.002 8.590,27.995 8.386,27.998 16.015 C 28.000 22.367,27.990 23.226,27.918 23.400 C 27.807 23.664,27.694 23.783,27.440 23.900 C 27.235 23.994,26.779 23.998,15.973 23.999 C 5.365 24.000,4.709 23.994,4.535 23.907 C 4.433 23.855,4.277 23.709,4.188 23.582 L 4.027 23.351 4.011 16.115 C 4.000 11.188,4.013 8.818,4.051 8.687 C 4.129 8.417,4.302 8.217,4.556 8.101 C 4.765 8.006,5.185 8.002,16.000 8.002 C 26.781 8.002,27.235 8.006,27.440 8.100 M7.740 15.039 C 7.217 15.165,6.896 15.732,7.041 16.272 C 7.121 16.569,7.427 16.877,7.719 16.956 C 7.876 16.998,9.160 17.012,12.117 17.001 L 16.293 16.987 16.492 16.863 C 17.029 16.529,17.157 15.826,16.766 15.361 C 16.456 14.992,16.743 15.014,12.107 15.005 C 9.804 15.000,7.839 15.016,7.740 15.039 M19.752 15.036 C 19.190 15.175,18.887 15.698,19.040 16.267 C 19.120 16.563,19.423 16.875,19.708 16.954 C 20.010 17.038,24.080 17.035,24.325 16.951 C 24.593 16.859,24.738 16.743,24.851 16.531 C 25.067 16.122,25.035 15.681,24.766 15.361 C 24.468 15.007,24.520 15.014,22.107 15.004 C 20.904 14.999,19.845 15.013,19.752 15.036 M10.880 19.038 C 8.496 19.059,7.624 19.084,7.541 19.131 C 7.359 19.235,7.110 19.548,7.040 19.759 C 6.882 20.238,7.211 20.816,7.722 20.958 C 7.853 20.994,9.832 21.012,13.547 21.010 C 19.913 21.007,19.502 21.034,19.811 20.595 C 19.953 20.392,19.973 20.319,19.973 20.000 C 19.973 19.673,19.957 19.616,19.808 19.432 C 19.717 19.319,19.561 19.179,19.461 19.120 C 19.287 19.017,19.182 19.013,16.693 19.011 C 15.271 19.010,12.655 19.022,10.880 19.038 M22.693 19.064 C 22.424 19.163,22.105 19.499,22.033 19.761 C 21.898 20.250,22.233 20.829,22.728 20.962 C 22.863 20.999,23.228 21.016,23.625 21.005 C 24.213 20.989,24.317 20.972,24.492 20.863 C 25.029 20.529,25.157 19.826,24.766 19.361 C 24.520 19.069,24.363 19.021,23.600 19.002 C 23.087 18.990,22.851 19.006,22.693 19.064 " fill="#1A1C1F" stroke="none" fill-rule="evenodd"></path></svg>
